images/search.svg

<svg width="21px" height="20px" viewBox="6701 -669 21 20" version="1.1" xmlns="http://www.w3.org/2000/svg" xmlns:xlink="http://www.w3.org/1999/xlink">
  <path d="M6715.29975,-654.286033 C6713.78099,-652.867899 6711.74185,-652 6709.5,-652 C6704.80558,-652 6701,-655.80558 6701,-660.5 C6701,-665.19442 6704.80558,-669 6709.5,-669 C6714.19442,-669 6718,-665.19442 6718,-660.5 C6718,-658.770159 6717.48326,-657.161007 6716.59573,-655.818485 L6721.91421,-650.5 L6720.5,-649.085786 L6715.29975,-654.286033 Z M6710.02604,-665.160658 C6710.10747,-665.112198 6710.2521,-665.024262 6710.43866,-664.907617 C6710.74962,-664.713185 6711.06043,-664.511348 6711.3494,-664.313234 C6711.47244,-664.228883 6711.58898,-664.146903 6711.69799,-664.06786 C6712.0706,-663.797665 6712.34183,-663.570659 6712.46832,-663.421542 C6712.58581,-663.283049 6712.74883,-663.025877 6712.93782,-662.682596 C6713.0113,-662.54914 6713.08785,-662.404311 6713.1668,-662.249886 C6713.32588,-661.938696 6713.48694,-661.603983 6713.64138,-661.269098 C6713.73405,-661.068157 6713.80369,-660.912335 6713.84199,-660.824514 L6714.75859,-661.224314 C6714.71768,-661.318126 6714.64526,-661.48016 6714.54946,-661.687891 C6714.38978,-662.034128 6714.22309,-662.380536 6714.0572,-662.705059 C6713.97382,-662.868163 6713.89254,-663.021931 6713.81384,-663.164881 C6713.59499,-663.562391 6713.40223,-663.866475 6713.23089,-664.068448 C6713.0384,-664.295357 6712.71861,-664.563008 6712.28503,-664.877417 C6712.16855,-664.961878 6712.04486,-665.048883 6711.91486,-665.138012 C6711.61303,-665.34494 6711.29085,-665.554164 6710.96881,-665.755517 C6710.77557,-665.876343 6710.6248,-665.968015 6710.53743,-666.020006 L6710.02604,-665.160658 Z" id="Combined-Shape" stroke="none" fill="#00BFFF" fill-rule="evenodd"></path>
</svg>

<svg width="21" height="20" viewBox="6701 -669 21 20" xmlns="http://www.w3.org/2000/svg"><path d="M6715.3-654.286a8.5 8.5 0 1 1 1.296-1.532l5.318 5.318-1.414 1.414-5.2-5.2zm-5.274-10.875a26.105 26.105 0 0 1 1.323.847c.123.085.24.167.349.246.373.27.644.497.77.646.118.139.28.396.47.74.073.133.15.278.229.432a27.294 27.294 0 0 1 .675 1.425l.917-.4a28.284 28.284 0 0 0-.701-1.48 17.038 17.038 0 0 0-.244-.46c-.219-.397-.412-.701-.583-.903-.193-.227-.512-.495-.946-.81a27.073 27.073 0 0 0-1.748-1.143l-.511.86z" fill="#00BFFF" fill-rule="evenodd"/></svg>
